X: 1
T:Speed The Plough
T: Bampton
M:2/4
L:1/8
S:Ben Lobley 1975
A:Bampton
P:A(AB2)4
K:G
P:A
|:"G"GABc|dedB|"G"dedB|dedB|"C"c2(3cdc|B2B2|"D"A2A2|A4:|"D"A2F2|"G"G4||
P:B
|:"C"g2gg|g4  |g2fe|"G"dBGB|"C"cdec | "D" A2 AA | A4 :|"D"A2F2|"G"G4||

/X: 3
/T: Powder Rag v1
/Q:120
/M:4/4
/L:1/8
/S:Ben Lobley 1975
/A:Bampton
/P:?
/K:C
/D^CDG- GFED | =C2 z2 [B,4G4] [|: G2 G^F G2 GF | G^FGc- cBAG | 
/E2 E2 E2 E2 | E^DEA-  AGEC | =D2 D^C D2 DC | D^CDG- GFED 
/|1 =CDEF G2 AB- | B^ABd-  dEF^F :|2 D^CDG- GFED | =C2 z2 [B,4G4] |]

/X: 4
/T: Powder Rag v2
M:4/4
L:1/8
S:Ben Lobley 1975
A:Bampton
K:C
[|: G2 G^F G2 GF | G^FGc- cBAG | 
E2 E2 E2 E2 | E^DEA-  AGEC | =D2 D^C D2 DC | D^CDG- GFED 
|1 =CDEF G2 AB- | B^ABd-  dEF^F :|2 D^CDG- GFED | =C2 "any chord""you want"z2 [B,4G4] |]

/X: 3
/T: Powder Rag 
Q:120
M:4/4
L:1/8
S:Ben Lobley 1975
K:C
D^CDG- GFED | =C2 z2 [B,4G4] |
[|: G2 G^F G2 GF | G^FGc- cBAG | E2 E2 E2 E2 | E^DEA-  AGEC |
 =D2 D^C D2 DC | D^CDG- GFED | =CDEF G2 AB- | B^ABd-  dEF^F :|

